assets/icons/stop.svg

<?xml version="1.0" encoding="UTF-8" standalone="no"?>
<svg viewBox="0 0 24 24" height="24" width="24" version="1.1" id="svg4" sodipodi:docname="stop.svg" inkscape:version="1.1 (ce6663b3b7, 2021-05-25)"
   xmlns:inkscape="http://www.inkscape.org/namespaces/inkscape"
   xmlns:sodipodi="http://sodipodi.sourceforge.net/DTD/sodipodi-0.dtd"
   xmlns="http://www.w3.org/2000/svg"
   xmlns:svg="http://www.w3.org/2000/svg">
   <defs id="defs8" />
   <sodipodi:namedview id="namedview6" pagecolor="#ffffff" bordercolor="#666666" borderopacity="1.0" inkscape:pageshadow="2" inkscape:pageopacity="0.0" inkscape:pagecheckerboard="0" showgrid="true" inkscape:zoom="28" inkscape:cx="8.4821429" inkscape:cy="11.160714" inkscape:window-width="1920" inkscape:window-height="1016" inkscape:window-x="0" inkscape:window-y="27" inkscape:window-maximized="1" inkscape:current-layer="svg4">
      <inkscape:grid type="xygrid" id="grid6" />
      <inkscape:grid type="xygrid" id="grid1051" dotted="true" spacingx="0.5" spacingy="0.5" empspacing="10" />
   </sodipodi:namedview>
   <path id="path1086" style="color:#000000;fill:#808080;-inkscape-stroke:none" d="m 7.9932422,2 -0.1464844,0.1464844 -5.8467578,5.846 v 8.0145156 l 5.9932422,5.993 h 8.0137578 l 5.993,-5.993 v -8.0145156 l -5.993,-5.9924844 z m 0.4140624,1 h 7.1856334 l 5.407062,5.4065468 v 7.1863912 l -5.407062,5.407062 h -7.1856334 l -5.4073046,-5.407062 v -7.1863912 z m 0.5859376,1 -4.9932422,4.9924844 v 0.2070312 5.8074844 l 4.9932422,4.993 h 6.0137578 l 4.993,-4.993 v -6.0145156 l -4.993,-4.9924844 z" sodipodi:nodetypes="ccccccccccccccccccccccccccccc" />
</svg>

<svg height="24" width="24" xmlns="http://www.w3.org/2000/svg"><path style="color:#000;fill:gray;-inkscape-stroke:none" d="m7.993 2-.146.146L2 7.992v8.015L7.993 22h8.014L22 16.007V7.992L16.007 2zm.414 1h7.186L21 8.407v7.186L15.593 21H8.407L3 15.593V8.407zm.586 1L4 8.992v6.015L8.993 20h6.014L20 15.007V8.992L15.007 4z"/></svg>
